X: 41967
T: Wallop The Potlid
R: jig
M: 6/8
K: Gmajor
|:A|BAB cBc|dgg fdc|BAB cBc|dgf g2a|
bag agf|~g3 fdc|BAG Adc|AGF G2:|

